src/assets/icons/exit-fit-to-screen.svg

<svg viewBox="0 0 32 32" fill="none" xmlns="http://www.w3.org/2000/svg">
<path d="M25 15V13H19V7H17V15H25ZM13 19V25H15V17H7V19H13Z" fill="currentColor"/>
<path d="M26 28H6C5.46973 27.9995 4.96133 27.7886 4.58637 27.4136C4.21141 27.0387 4.00053 26.5303 4 26V6C4.00053 5.46973 4.21141 4.96133 4.58637 4.58637C4.96133 4.21141 5.46973 4.00053 6 4H26C26.5303 4.00053 27.0387 4.21141 27.4136 4.58637C27.7886 4.96133 27.9995 5.46973 28 6V26C27.9995 26.5303 27.7886 27.0387 27.4136 27.4136C27.0387 27.7886 26.5303 27.9995 26 28ZM6 6V26H26.001L26 6H6Z" fill="currentColor"/>
</svg>

<svg xmlns="http://www.w3.org/2000/svg" fill="none" viewBox="0 0 32 32">
  <path fill="currentColor" d="M25 15v-2h-6V7h-2v8zm-12 4v6h2v-8H7v2z" />
  <path fill="currentColor"
    d="M26 28H6a2 2 0 0 1-2-2V6a2 2 0 0 1 2-2h20a2 2 0 0 1 2 2v20a2 2 0 0 1-2 2M6 6v20h20.001L26 6z" />
</svg>
